;PYCAM-META-DATA: Filename:triskell_70x70_mm.svg
;PYCAM-META-DATA: Timestamp: 2015-06-27 16:46:56.407475
;PYCAM-META-DATA: Version: 0.5.1
;Estimated machine time: 3 minutes
G40 (disable tool radius compensation)
G49 (disable tool length compensation)
G80 (cancel modal motion)
G54 (select coordinate system 1)
G90 (disable incremental moves)
G21 (metric)
G61 (exact path mode)
F4.00000
S1000.00000
;PYCAM_TOOLPATH_SETTINGS: START
;[Bounds]
;maxz = 0.0
;maxx = 87.49886
;maxy = 87.49981
;minx = 2.50054
;miny = 2.50209
;minz = 0.0
;
;[Tool]
;torus_radius = 0.25
;speed = 1000.0
;shape = SphericalCutter
;tool_radius = 0.5
;feedrate = 200.0
;
;[Process]
;engrave_offset = 0.0
;step_down = 1.0
;generator = EngraveCutter
;postprocessor = SimpleCutter
;overlap_percent = 0
;milling_style = conventional
;material_allowance = 0.0
;pocketing_type = none
;path_direction = x
;
;PYCAM_TOOLPATH_SETTINGS: END
T3 M6
G0 Z10.0000
M3 (start spindle)
G04 P3 (wait for 3 seconds)
 X64.9718 Y29.3554
G1 Z-3.5.0000 F2
 X65.0372 Y29.4747
 X65.1204 Y29.5890
 X65.2157 Y29.6924
 X65.3175 Y29.7783
 X65.4372 Y29.8526
 X65.5701 Y29.9129
 X65.7086 Y29.9568
 X65.8453 Y29.9822
 X65.9996 Y29.9896
 X66.1597 Y29.9778
 X66.3179 Y29.9485
 X66.4668 Y29.9039
 X66.6285 Y29.8317
 X66.7883 Y29.7383
 X66.9393 Y29.6297
 X67.0747 Y29.5110
 X67.2150 Y29.3596
 X67.3456 Y29.1879
 X67.4615 Y29.0049
 X67.5583 Y28.8192
 X67.6490 Y28.5976
 X67.7232 Y28.3599
 X67.7790 Y28.1165
 X67.8144 Y27.8779
 X67.8311 Y27.6069
 X67.8260 Y27.3247
 X67.8007 Y27.0436
 X67.7567 Y26.7756
 X67.6825 Y26.4824
 X67.5835 Y26.1858
 X67.4640 Y25.8979
 X67.3294 Y25.6304
 X67.1579 Y25.3485
 X66.9593 Y25.0718
 X66.7424 Y24.8110
 X66.5167 Y24.5763
 X66.2490 Y24.3410
 X65.9554 Y24.1197
 X65.6481 Y23.9208
 X65.3397 Y23.7522
 X64.9903 Y23.5981
 X64.6179 Y23.4671
 X64.2378 Y23.3631
 X63.8651 Y23.2904
 X63.4571 Y23.2465
 X63.0321 Y23.2337
 X62.6071 Y23.2515
 X62.1989 Y23.2989
 X61.7647 Y23.3857
 X61.3212 Y23.5099
 X60.8860 Y23.6654
 X60.4767 Y23.8460
 X60.0533 Y24.0742
 X59.6310 Y24.3435
 X59.2260 Y24.6421
 X58.8546 Y24.9579
 X58.4832 Y25.3272
 X58.1243 Y25.7374
 X57.7911 Y26.1717
 X57.4971 Y26.6129
 X57.2185 Y27.1057
 X56.9636 Y27.6371
 X56.7411 Y28.1853
 X56.5601 Y28.7285
 X56.4097 Y29.3178
 X56.2937 Y29.9386
 X56.2150 Y30.5663
 X56.1771 Y31.1757
 X56.1825 Y31.8224
 X56.2314 Y32.4906
 X56.3203 Y33.1538
 X56.4458 Y33.7856
 X56.5281 Y34.1103
 X56.6239 Y34.4403
 X56.7322 Y34.7725
 X56.8517 Y35.1036
 X56.9808 Y35.4306
 X57.1186 Y35.7501
 X57.2636 Y36.0592
 X57.4146 Y36.3544
 X57.5842 Y36.6585
 X57.7690 Y36.9637
 X57.9671 Y37.2676
 X58.1760 Y37.5672
 X58.3936 Y37.8597
 X58.6181 Y38.1421
 X58.8468 Y38.4117
 X59.0779 Y38.6654
 X59.3296 Y38.9219
 X59.5972 Y39.1753
 X59.8775 Y39.4233
 X60.1678 Y39.6638
 X60.4649 Y39.8943
 X60.7658 Y40.1129
 X61.0679 Y40.3172
 X61.3682 Y40.5049
 X61.6894 Y40.6886
 X62.0261 Y40.8646
 X62.3742 Y41.0313
 X62.7303 Y41.1875
 X63.0908 Y41.3318
 X63.4521 Y41.4628
 X63.8107 Y41.5790
 X64.1629 Y41.6789
 X64.5346 Y41.7686
 X64.9196 Y41.8460
 X65.3137 Y41.9107
 X65.7132 Y41.9625
 X66.1140 Y42.0010
 X66.5124 Y42.0258
 X66.9040 Y42.0367
 X67.2853 Y42.0331
 X67.6824 Y42.0135
 X68.0896 Y41.9776
 X68.5026 Y41.9265
 X68.9176 Y41.8608
 X69.3307 Y41.7814
 X69.7376 Y41.6890
 X70.1344 Y41.5843
 X70.5171 Y41.4683
 X70.9108 Y41.3315
 X71.3106 Y41.1756
 X71.7122 Y41.0026
 X72.1121 Y40.8144
 X72.5063 Y40.6131
 X72.8908 Y40.4006
 X73.2622 Y40.1788
 X73.6163 Y39.9496
 X73.9756 Y39.6974
 X74.3360 Y39.4239
 X74.6942 Y39.1326
 X75.0467 Y38.8268
 X75.3901 Y38.5093
 X75.7211 Y38.1833
 X76.0362 Y37.8522
 X76.3324 Y37.5190
 X76.6271 Y37.1607
 X76.9176 Y36.7814
 X77.2014 Y36.3851
 X77.4757 Y35.9758
 X77.7379 Y35.5578
 X77.9856 Y35.1350
 X78.2160 Y34.7115
 X78.4268 Y34.2914
 X78.6297 Y33.8474
 X78.8229 Y33.3833
 X79.0050 Y32.9042
 X79.1743 Y32.4147
 X79.3292 Y31.9200
 X79.4685 Y31.4247
 X79.5903 Y30.9339
 X79.6932 Y30.4521
 X79.7821 Y29.9490
 X79.8561 Y29.4289
 X79.9151 Y28.8971
 X79.9589 Y28.3589
 X79.9869 Y27.8194
 X79.9990 Y27.2843
 X79.9950 Y26.7586
 X79.9744 Y26.2478
 X79.9350 Y25.7199
 X79.8765 Y25.1793
 X79.7997 Y24.6314
 X79.7060 Y24.0817
 X79.5963 Y23.5351
 X79.4715 Y22.9972
 X79.3332 Y22.4735
 X79.1821 Y21.9689
 X79.0082 Y21.4546
 X78.8121 Y20.9332
 X78.5961 Y20.4094
 X78.3626 Y19.8886
 X78.1140 Y19.3756
 X77.8529 Y18.8754
 X77.5815 Y18.3933
 X77.3024 Y17.9342
 X76.9978 Y17.4719
 X76.6694 Y17.0089
 X76.3207 Y16.5496
 X75.9556 Y16.0981
 X75.5776 Y15.6588
 X75.1903 Y15.2361
 X74.7976 Y14.8340
 X74.4029 Y14.4572
 X73.9826 Y14.0850
 X73.5383 Y13.7190
 X73.0747 Y13.3623
 X72.5967 Y13.0183
 X72.1088 Y12.6901
 X71.6158 Y12.3811
 X71.1228 Y12.0945
 X70.6342 Y11.8336
 X70.1219 Y11.5842
 X69.5874 Y11.3481
 X69.0360 Y11.1269
 X68.4733 Y10.9225
 X67.9050 Y10.7366
 X67.3365 Y10.5710
 X66.7736 Y10.4276
 X66.2217 Y10.3082
 X65.6496 Y10.2082
 X65.0586 Y10.1274
 X64.4549 Y10.0662
 X63.8442 Y10.0246
 X63.2325 Y10.0032
 X62.6260 Y10.0019
 X62.0306 Y10.0212
 X61.4521 Y10.0612
 X60.8588 Y10.1263
 X60.2517 Y10.2157
 X59.6368 Y10.3282
 X59.0201 Y10.4623
 X58.4076 Y10.6164
 X57.8054 Y10.7891
 X57.2193 Y10.9790
 X56.6554 Y11.1845
 X56.0828 Y11.4188
 X55.5029 Y11.6815
 X54.9214 Y11.9693
 X54.3433 Y12.2790
 X53.7747 Y12.6075
 X53.2207 Y12.9516
 X52.6871 Y13.3079
 X52.1793 Y13.6733
 X51.6711 Y14.0693
 X51.1625 Y14.4956
 X50.6583 Y14.9474
 X50.1632 Y15.4199
 X49.6819 Y15.9082
 X49.2193 Y16.4078
 X48.7800 Y16.9139
 X48.3690 Y17.4215
 X47.9653 Y17.9593
 X47.5689 Y18.5271
 X47.1831 Y19.1188
 X46.8115 Y19.7282
 X46.4578 Y20.3494
 X46.1250 Y20.9765
 X45.8171 Y21.6035
 X45.5372 Y22.2239
 X45.2726 Y22.8715
 X45.0229 Y23.5468
 X44.7900 Y24.2428
 X44.5756 Y24.9524
 X44.3815 Y25.6689
 X44.2100 Y26.3849
 X44.0628 Y27.0938
 X43.9417 Y27.7883
 X43.8326 Y28.3408
 X43.7024 Y28.9043
 X43.5525 Y29.4729
 X43.3846 Y30.0414
 X43.2004 Y30.6042
 X43.0014 Y31.1556
 X42.7894 Y31.6901
 X42.5663 Y32.2022
 X42.3322 Y32.6893
 X42.0758 Y33.1807
 X41.8000 Y33.6718
 X41.5072 Y34.1576
 X41.2007 Y34.6336
 X40.8831 Y35.0950
 X40.5572 Y35.5369
 X40.2263 Y35.9547
 X39.8919 Y36.3462
 X39.5356 Y36.7356
 X39.1607 Y37.1194
 X38.7714 Y37.4939
 X38.3714 Y37.8554
 X37.9644 Y38.2003
 X37.5543 Y38.5249
 X37.1450 Y38.8253
 X36.7396 Y39.0997
 X36.3142 Y39.3661
 X35.8731 Y39.6225
 X35.4207 Y39.8661
 X34.9615 Y40.0947
 X34.4999 Y40.3058
 X34.0401 Y40.4972
 X33.5869 Y40.6661
 X33.1439 Y40.8121
 X32.6840 Y40.9451
 X32.2119 Y41.0644
 X31.7324 Y41.1689
 X31.2499 Y41.2575
 X30.7694 Y41.3290
 X30.2956 Y41.3826
 X29.8331 Y41.4172
 X29.3864 Y41.4331
 X28.9269 Y41.4325
 X28.4593 Y41.4156
 X27.9882 Y41.3826
 X27.5183 Y41.3343
 X27.0542 Y41.2707
 X26.6006 Y41.1921
 X26.1619 Y41.0989
 X25.7433 Y40.9924
 X25.3167 Y40.8671
 X24.8867 Y40.7247
 X24.4571 Y40.5665
 X24.0322 Y40.3942
 X23.6165 Y40.2093
 X23.2139 Y40.0133
 X22.8286 Y39.8078
 X22.4653 Y39.5956
 X22.0994 Y39.3639
 X21.7343 Y39.1153
 X21.3736 Y38.8522
 X21.0208 Y38.5774
 X20.6793 Y38.2933
 X20.3529 Y38.0026
 X20.0449 Y37.7076
 X19.7592 Y37.4129
 X19.4758 Y37.0992
 X19.1972 Y36.7700
 X18.9261 Y36.4286
 X18.6651 Y36.0783
 X18.4169 Y35.7226
 X18.1843 Y35.3647
 X17.9697 Y35.0079
 X17.7764 Y34.6582
 X17.5896 Y34.2914
 X17.4107 Y33.9117
 X17.2417 Y33.5225
 X17.0840 Y33.1279
 X16.9397 Y32.7318
 X16.8104 Y32.3379
 X16.6976 Y31.9500
 X16.6026 Y31.5750
 X16.5176 Y31.1860
 X16.4432 Y30.7872
 X16.3801 Y30.3825
 X16.3289 Y29.9758
 X16.2904 Y29.5714
 X16.2651 Y29.1731
 X16.2539 Y28.7849
 X16.2562 Y28.4138
 X16.2710 Y28.0326
 X16.2981 Y27.6453
 X16.3369 Y27.2557
 X16.3872 Y26.8675
 X16.4488 Y26.4847
 X16.5211 Y26.1111
 X16.6039 Y25.7503
 X16.6944 Y25.4104
 X16.7990 Y25.0647
 X16.9164 Y24.7168
 X17.0451 Y24.3697
 X17.1842 Y24.0272
 X17.3321 Y23.6926
 X17.4878 Y23.3692
 X17.6499 Y23.0604
 X17.8147 Y22.7736
 X17.9936 Y22.4854
 X18.1846 Y22.1986
 X18.3858 Y21.9158
 X18.5953 Y21.6401
 X18.8111 Y21.3739
 X19.0313 Y21.1203
 X19.2539 Y20.8817
 X19.4728 Y20.6647
 X19.7051 Y20.4501
 X19.9483 Y20.2401
 X20.1999 Y20.0367
 X20.4572 Y19.8419
 X20.7181 Y19.6578
 X20.9797 Y19.4865
 X21.2397 Y19.3301
 X21.4914 Y19.1921
 X21.7544 Y19.0599
 X22.0263 Y18.9349
 X22.3040 Y18.8182
 X22.5853 Y18.7111
 X22.8669 Y18.6147
 X23.1465 Y18.5303
 X23.4212 Y18.4590
 X23.9528 Y18.3543
 X24.5096 Y18.2857
 X25.0693 Y18.2554
 X25.6096 Y18.2661
 X26.1153 Y18.3171
 X26.6349 Y18.4074
 X27.1475 Y18.5335
 X27.6324 Y18.6919
 X28.0749 Y18.8762
 X28.5203 Y19.1004
 X28.9510 Y19.3553
 X29.3493 Y19.6317
 X29.7001 Y19.9189
 X30.0439 Y20.2428
 X30.3668 Y20.5901
 X30.6546 Y20.9479
 X30.8968 Y21.3010
 X31.1236 Y21.6843
 X31.3257 Y22.0831
 X31.4936 Y22.4818
 X31.6208 Y22.8615
 X31.7264 Y23.2642
 X31.8058 Y23.6735
 X31.8547 Y24.0732
 X31.8721 Y24.4419
 X31.8643 Y24.8246
 X31.8318 Y25.2057
 X31.7747 Y25.5697
 X31.6965 Y25.8954
 X31.5928 Y26.2263
 X31.4674 Y26.5482
 X31.3242 Y26.8475
 X31.1736 Y27.1054
 X30.9993 Y27.3600
 X30.8079 Y27.6000
 X30.6062 Y27.8147
 X30.4104 Y27.9887
 X30.1950 Y28.1522
 X29.9685 Y28.2979
 X29.7396 Y28.4183
 X29.5283 Y28.5051
 X29.3024 Y28.5754
 X29.0717 Y28.6260
 X28.8467 Y28.6540
 X28.6474 Y28.6569
 X28.4406 Y28.6412
 X28.2354 Y28.6068
 X28.0417 Y28.5531
 X27.8779 Y28.4874
 X27.7144 Y28.4022
 X27.5592 Y28.3011
 X27.4204 Y28.1881
 X27.3094 Y28.0733
 X27.2060 Y27.9421
 X27.1160 Y27.8006
 X27.0454 Y27.6550
 X26.9979 Y27.5156
 X26.9643 Y27.3656
 X26.9464 Y27.2128
 X26.9463 Y27.0651
 X26.9657 Y26.9279
 X27.0022 Y26.7885
 X27.0538 Y26.6547
 X27.1183 Y26.5346
 X27.1829 Y26.4139
 X27.2343 Y26.2801
 X27.2704 Y26.1410
 X27.2892 Y26.0040
 X27.2899 Y25.8563
 X27.2724 Y25.7033
 X27.2389 Y25.5533
 X27.1914 Y25.4142
 X27.1203 Y25.2683
 X27.0304 Y25.1268
 X26.9274 Y24.9956
 X26.8167 Y24.8807
 X26.6776 Y24.7671
 X26.5221 Y24.6661
 X26.3582 Y24.5811
 X26.1937 Y24.5156
 X26.0007 Y24.4621
 X25.7960 Y24.4276
 X25.5889 Y24.4119
 X25.3890 Y24.4150
 X25.1640 Y24.4425
 X24.9337 Y24.4931
 X24.7078 Y24.5636
 X24.4962 Y24.6507
 X24.2676 Y24.7703
 X24.0411 Y24.9157
 X23.8257 Y25.0796
 X23.6304 Y25.2543
 X23.4286 Y25.4690
 X23.2369 Y25.7090
 X23.0625 Y25.9635
 X22.9125 Y26.2217
 X22.7693 Y26.5206
 X22.6439 Y26.8422
 X22.5401 Y27.1729
 X22.4621 Y27.4990
 X22.4043 Y27.8631
 X22.3717 Y28.2443
 X22.3639 Y28.6269
 X22.3806 Y28.9956
 X22.4303 Y29.3954
 X22.5101 Y29.8049
 X22.6160 Y30.2076
 X22.7432 Y30.5872
 X22.9111 Y30.9854
 X23.1131 Y31.3842
 X23.3400 Y31.7679
 X23.5825 Y32.1211
 X23.8703 Y32.4787
 X24.1932 Y32.8260
 X24.5368 Y33.1499
 X24.8874 Y33.4369
 X25.2857 Y33.7133
 X25.7162 Y33.9679
 X26.1614 Y34.1919
 X26.6029 Y34.3768
 X27.0886 Y34.5356
 X27.6017 Y34.6617
 X28.1215 Y34.7518
 X28.6272 Y34.8026
 X29.1672 Y34.8133
 X29.7265 Y34.7831
 X30.2829 Y34.7144
 X30.8144 Y34.6096
 X31.0890 Y34.5382
 X31.3688 Y34.4536
 X31.6506 Y34.3572
 X31.9319 Y34.2503
 X32.2099 Y34.1336
 X32.4817 Y34.0089
 X32.7446 Y33.8769
 X32.9957 Y33.7389
 X33.2561 Y33.5821
 X33.5181 Y33.4107
 X33.7792 Y33.2265
 X34.0367 Y33.0318
 X34.2883 Y32.8285
 X34.5315 Y32.6186
 X34.7639 Y32.4042
 X34.9829 Y32.1871
 X35.2056 Y31.9486
 X35.4257 Y31.6949
 X35.6415 Y31.4286
 X35.8508 Y31.1526
 X36.0518 Y30.8699
 X36.2426 Y30.5831
 X36.4211 Y30.2949
 X36.5856 Y30.0083
 X36.7481 Y29.6997
 X36.9040 Y29.3764
 X37.0521 Y29.0418
 X37.1914 Y28.6993
 X37.3203 Y28.3522
 X37.4376 Y28.0042
 X37.5422 Y27.6585
 X37.6329 Y27.3185
 X37.7157 Y26.9578
 X37.7879 Y26.5840
 X37.8494 Y26.2013
 X37.8999 Y25.8132
 X37.9388 Y25.4236
 X37.9657 Y25.0364
 X37.9806 Y24.6553
 X37.9829 Y24.2842
 X37.9711 Y23.8958
 X37.9457 Y23.4975
 X37.9071 Y23.0931
 X37.8561 Y22.6865
 X37.7931 Y22.2818
 X37.7189 Y21.8829
 X37.6339 Y21.4939
 X37.5390 Y21.1188
 X37.4264 Y20.7310
 X37.2969 Y20.3372
 X37.1526 Y19.9411
 X36.9951 Y19.5465
 X36.8261 Y19.1574
 X36.6474 Y18.7775
 X36.4606 Y18.4107
 X36.2674 Y18.0608
 X36.0522 Y17.7042
 X35.8192 Y17.3463
 X35.5707 Y16.9906
 X35.3096 Y16.6404
 X35.0386 Y16.2989
 X34.7601 Y15.9697
 X34.4771 Y15.6561
 X34.1919 Y15.3614
 X33.8837 Y15.0664
 X33.5572 Y14.7756
 X33.2156 Y14.4911
 X32.8626 Y14.2160
 X32.5018 Y13.9528
 X32.1367 Y13.7039
 X31.7710 Y13.4721
 X31.4082 Y13.2599
 X31.0228 Y13.0547
 X30.6203 Y12.8589
 X30.2043 Y12.6741
 X29.7794 Y12.5018
 X29.3497 Y12.3436
 X28.9194 Y12.2012
 X28.4925 Y12.0762
 X28.0733 Y11.9701
 X27.6349 Y11.8770
 X27.1814 Y11.7984
 X26.7175 Y11.7347
 X26.2478 Y11.6862
 X25.7769 Y11.6532
 X25.3096 Y11.6359
 X24.8503 Y11.6348
 X24.4037 Y11.6501
 X23.9407 Y11.6853
 X23.4668 Y11.7392
 X22.9863 Y11.8109
 X22.5040 Y11.8994
 X22.0246 Y12.0038
 X21.5526 Y12.1232
 X21.0929 Y12.2564
 X20.6499 Y12.4026
 X20.1967 Y12.5717
 X19.7368 Y12.7631
 X19.2749 Y12.9742
 X18.8154 Y13.2028
 X18.3628 Y13.4465
 X17.9214 Y13.7028
 X17.4957 Y13.9693
 X17.0903 Y14.2438
 X16.6814 Y14.5443
 X16.2717 Y14.8689
 X15.8650 Y15.2138
 X15.4650 Y15.5751
 X15.0758 Y15.9497
 X14.7011 Y16.3335
 X14.3447 Y16.7229
 X14.0106 Y17.1143
 X13.6794 Y17.5321
 X13.3534 Y17.9739
 X13.0356 Y18.4353
 X12.7289 Y18.9112
 X12.4361 Y19.3972
 X12.1602 Y19.8882
 X11.9040 Y20.3796
 X11.6706 Y20.8664
 X11.4468 Y21.3788
 X11.2346 Y21.9133
 X11.0355 Y22.4649
 X10.8511 Y23.0275
 X10.6831 Y23.5960
 X10.5332 Y24.1647
 X10.4029 Y24.7279
 X10.2941 Y25.2804
 X10.2017 Y25.8547
 X10.1264 Y26.4479
 X10.0683 Y27.0540
 X10.0278 Y27.6672
 X10.0051 Y28.2815
 X10.0004 Y28.8907
 X10.0139 Y29.4890
 X10.0461 Y30.0704
 X10.0997 Y30.6676
 X10.1750 Y31.2790
 X10.2708 Y31.8983
 X10.3859 Y32.5196
 X10.5189 Y33.1369
 X10.6687 Y33.7443
 X10.8339 Y34.3354
 X11.0133 Y34.9044
 X11.2175 Y35.4825
 X11.4469 Y36.0682
 X11.6988 Y36.6560
 X11.9704 Y37.2401
 X12.2588 Y37.8153
 X12.5614 Y38.3756
 X12.8751 Y38.9153
 X13.1974 Y39.4289
 X13.5466 Y39.9439
 X13.9226 Y40.4593
 X14.3213 Y40.9706
 X14.7385 Y41.4726
 X15.1700 Y41.9608
 X15.6117 Y42.4304
 X16.0593 Y42.8765
 X16.5089 Y43.2943
 X16.9851 Y43.7053
 X17.4882 Y44.1089
 X18.0128 Y44.5017
 X18.5535 Y44.8801
 X19.1049 Y45.2407
 X19.6617 Y45.5799
 X20.2185 Y45.8940
 X20.7699 Y46.1797
 X21.3456 Y46.4506
 X21.9461 Y46.7065
 X22.5653 Y46.9458
 X23.1968 Y47.1664
 X23.8344 Y47.3661
 X24.4718 Y47.5432
 X25.1028 Y47.6954
 X25.7210 Y47.8211
 X26.3600 Y47.9250
 X27.0196 Y48.0072
 X27.6933 Y48.0674
 X28.3744 Y48.1056
 X29.0564 Y48.1213
 X29.7324 Y48.1146
 X30.3958 Y48.0853
 X31.0401 Y48.0332
 X31.6986 Y47.9533
 X32.3721 Y47.8461
 X33.0542 Y47.7132
 X33.7381 Y47.5563
 X34.4172 Y47.3769
 X35.0849 Y47.1772
 X35.7344 Y46.9586
 X36.3594 Y46.7226
 X36.8629 Y46.5469
 X37.3861 Y46.3856
 X37.9235 Y46.2396
 X38.4696 Y46.1104
 X39.0193 Y45.9993
 X39.5672 Y45.9072
 X40.1078 Y45.8356
 X40.6357 Y45.7856
 X41.1482 Y45.7578
 X41.6756 Y45.7486
 X42.2124 Y45.7576
 X42.7536 Y45.7849
 X43.2936 Y45.8297
 X43.8275 Y45.8921
 X44.3497 Y45.9717
 X44.8550 Y46.0682
 X45.3404 Y46.1813
 X45.8353 Y46.3157
 X46.3349 Y46.4699
 X46.8339 Y46.6421
 X47.3276 Y46.8306
 X47.8114 Y47.0335
 X48.2800 Y47.2494
 X48.7289 Y47.4764
 X49.1547 Y47.7135
 X49.5842 Y47.9728
 X50.0131 Y48.2517
 X50.4374 Y48.5474
 X50.8528 Y48.8567
 X51.2551 Y49.1769
 X51.6404 Y49.5051
 X52.0044 Y49.8383
 X52.3444 Y50.1746
 X52.6825 Y50.5328
 X53.0154 Y50.9090
 X53.3400 Y51.2993
 X53.6531 Y51.7001
 X53.9515 Y52.1075
 X54.2321 Y52.5176
 X54.4918 Y52.9265
 X54.7281 Y53.3313
 X54.9572 Y53.7558
 X55.1771 Y54.1960
 X55.3860 Y54.6469
 X55.5814 Y55.1047
 X55.7617 Y55.5647
 X55.9246 Y56.0225
 X56.0683 Y56.4738
 X56.1915 Y56.9136
 X56.3031 Y57.3700
 X56.4025 Y57.8385
 X56.4887 Y58.3142
 X56.5611 Y58.7924
 X56.6189 Y59.2686
 X56.6611 Y59.7381
 X56.6872 Y60.1958
 X56.6958 Y60.6371
 X56.6900 Y61.0906
 X56.6701 Y61.5517
 X56.6365 Y62.0160
 X56.5893 Y62.4790
 X56.5290 Y62.9361
 X56.4557 Y63.3829
 X56.3700 Y63.8147
 X56.2733 Y64.2254
 X56.1603 Y64.6436
 X56.0319 Y65.0653
 X55.8901 Y65.4861
 X55.7358 Y65.9021
 X55.5708 Y66.3089
 X55.3964 Y66.7026
 X55.2140 Y67.0789
 X55.0264 Y67.4328
 X54.8218 Y67.7889
 X54.6025 Y68.1440
 X54.3708 Y68.4946
 X54.1289 Y68.8372
 X53.8790 Y69.1685
 X53.6235 Y69.4849
 X53.3647 Y69.7831
 X53.1075 Y70.0581
 X52.8340 Y70.3308
 X52.5471 Y70.5987
 X52.2496 Y70.8592
 X51.9447 Y71.1094
 X51.6350 Y71.3469
 X51.3236 Y71.5694
 X51.0135 Y71.7740
 X50.7107 Y71.9578
 X50.3936 Y72.1347
 X50.0654 Y72.3035
 X49.7296 Y72.4624
 X49.3892 Y72.6100
 X49.0474 Y72.7446
 X48.7076 Y72.8649
 X48.3733 Y72.9689
 X48.0515 Y73.0550
 X47.7181 Y73.1313
 X47.3765 Y73.1968
 X47.0300 Y73.2514
 X46.6821 Y73.2943
 X46.3361 Y73.3250
 X45.9956 Y73.3431
 X45.6639 Y73.3478
 X45.0244 Y73.3186
 X44.3651 Y73.2417
 X43.7121 Y73.1203
 X43.0911 Y72.9579
 X42.8051 Y72.8644
 X42.5147 Y72.7572
 X42.2224 Y72.6379
 X41.9313 Y72.5074
 X41.6440 Y72.3672
 X41.3637 Y72.2185
 X41.0932 Y72.0626
 X40.8354 Y71.9007
 X40.5975 Y71.7378
 X40.3588 Y71.5611
 X40.1213 Y71.3726
 X39.8876 Y71.1744
 X39.6600 Y70.9685
 X39.4408 Y70.7565
 X39.2324 Y70.5408
 X39.0369 Y70.3231
 X38.8604 Y70.1103
 X38.6862 Y69.8849
 X38.5161 Y69.6493
 X38.3519 Y69.4057
 X38.1950 Y69.1568
 X38.0474 Y68.9047
 X37.9103 Y68.6519
 X37.7857 Y68.4008
 X37.5746 Y67.9089
 X37.3885 Y67.3842
 X37.2350 Y66.8478
 X37.1218 Y66.3211
 X37.0506 Y65.8204
 X37.0101 Y65.2971
 X37.0019 Y64.7726
 X37.0279 Y64.2681
 X37.0853 Y63.8001
 X37.1765 Y63.3208
 X37.2975 Y62.8493
 X37.4442 Y62.4046
 X37.6099 Y62.0049
 X37.8083 Y61.6038
 X38.0314 Y61.2176
 X38.2707 Y60.8626
 X38.5157 Y60.5558
 X38.7901 Y60.2571
 X39.0831 Y59.9792
 X39.3831 Y59.7342
 X39.6743 Y59.5339
 X39.9899 Y59.3497
 X40.3164 Y59.1892
 X40.6411 Y59.0603
 X40.9446 Y58.9694
 X41.2651 Y58.8996
 X41.5897 Y58.8543
 X41.9047 Y58.8369
 X42.1894 Y58.8465
 X42.4833 Y58.8806
 X42.7737 Y58.9376
 X43.0483 Y59.0161
 X43.2882 Y59.1093
 X43.5293 Y59.2263
 X43.7611 Y59.3624
 X43.9731 Y59.5136
 X44.1493 Y59.6654
 X44.3194 Y59.8386
 X44.4760 Y60.0257
 X44.6113 Y60.2192
 X44.7132 Y60.4021
 X44.8036 Y60.6011
 X44.8776 Y60.8078
 X44.9308 Y61.0129
 X44.9601 Y61.1967
 X44.9731 Y61.3903
 X44.9686 Y61.5843
 X44.9460 Y61.7696
 X44.9085 Y61.9293
 X44.8535 Y62.0903
 X44.7833 Y62.2443
 X44.7008 Y62.3828
 X44.6113 Y62.4958
 X44.5057 Y62.6014
 X44.3899 Y62.6938
 X44.2693 Y62.7672
 X44.1486 Y62.8185
 X44.0171 Y62.8547
 X43.8825 Y62.8742
 X43.7525 Y62.8749
 X43.6226 Y62.8753
 X43.4881 Y62.8944
 X43.3567 Y62.9306
 X43.2361 Y62.9821
 X43.1156 Y63.0557
 X42.9999 Y63.1481
 X42.8947 Y63.2536
 X42.8061 Y63.3667
 X42.7228 Y63.5053
 X42.6522 Y63.6592
 X42.5969 Y63.8201
 X42.5594 Y63.9797
 X42.5369 Y64.1650
 X42.5329 Y64.3586
 X42.5458 Y64.5522
 X42.5747 Y64.7365
 X42.6272 Y64.9415
 X42.7014 Y65.1478
 X42.7919 Y65.3464
 X42.8943 Y65.5287
 X43.0293 Y65.7229
 X43.1858 Y65.9103
 X43.3558 Y66.0835
 X43.5321 Y66.2358
 X43.7440 Y66.3864
 X43.9760 Y66.5228
 X44.2171 Y66.6400
 X44.4571 Y66.7332
 X44.7317 Y66.8117
 X45.0221 Y66.8683
 X45.3160 Y66.9022
 X45.6007 Y66.9125
 X45.9157 Y66.8946
 X46.2403 Y66.8493
 X46.5608 Y66.7799
 X46.8644 Y66.6892
 X47.1890 Y66.5603
 X47.5156 Y66.3997
 X47.8311 Y66.2156
 X48.1224 Y66.0153
 X48.4224 Y65.7697
 X48.7151 Y65.4917
 X48.9896 Y65.1929
 X49.2344 Y64.8854
 X49.4744 Y64.5313
 X49.6975 Y64.1456
 X49.8957 Y63.7446
 X50.0612 Y63.3447
 X50.2081 Y62.8999
 X50.3292 Y62.4281
 X50.4207 Y61.9488
 X50.4789 Y61.4814
 X50.5040 Y60.9760
 X50.4956 Y60.4513
 X50.4549 Y59.9283
 X50.3837 Y59.4282
 X50.2703 Y58.9011
 X50.1168 Y58.3647
 X49.9308 Y57.8403
 X49.7197 Y57.3486
 X49.5951 Y57.0975
 X49.4581 Y56.8444
 X49.3103 Y56.5922
 X49.1533 Y56.3431
 X48.9890 Y56.0992
 X48.8190 Y55.8633
 X48.6450 Y55.6378
 X48.4685 Y55.4249
 X48.2731 Y55.2074
 X48.0646 Y54.9917
 X47.8454 Y54.7800
 X47.6178 Y54.5743
 X47.3842 Y54.3763
 X47.1467 Y54.1882
 X46.9079 Y54.0117
 X46.6700 Y53.8488
 X46.4121 Y53.6864
 X46.1415 Y53.5303
 X45.8611 Y53.3817
 X45.5740 Y53.2415
 X45.2828 Y53.1113
 X44.9906 Y52.9919
 X44.7000 Y52.8850
 X44.4140 Y52.7914
 X43.7932 Y52.6290
 X43.1401 Y52.5078
 X42.4808 Y52.4308
 X41.8413 Y52.4015
 X41.5096 Y52.4058
 X41.1692 Y52.4236
 X40.8233 Y52.4542
 X40.4754 Y52.4971
 X40.1290 Y52.5517
 X39.7872 Y52.6175
 X39.4539 Y52.6939
 X39.1322 Y52.7806
 X38.7978 Y52.8847
 X38.4581 Y53.0049
 X38.1163 Y53.1394
 X37.7758 Y53.2869
 X37.4399 Y53.4457
 X37.1117 Y53.6140
 X36.7946 Y53.7907
 X36.4917 Y53.9740
 X36.1815 Y54.1790
 X35.8703 Y54.4017
 X35.5607 Y54.6394
 X35.2557 Y54.8899
 X34.9583 Y55.1501
 X34.6714 Y55.4181
 X34.3979 Y55.6910
 X34.1408 Y55.9664
 X33.8818 Y56.2646
 X33.6263 Y56.5810
 X33.3764 Y56.9121
 X33.1344 Y57.2547
 X32.9028 Y57.6050
 X32.6835 Y57.9599
 X32.4790 Y58.3157
 X32.2915 Y58.6690
 X32.1090 Y59.0454
 X31.9346 Y59.4392
 X31.7694 Y59.8461
 X31.6153 Y60.2621
 X31.4733 Y60.6831
 X31.3451 Y61.1049
 X31.2321 Y61.5236
 X31.1354 Y61.9347
 X31.0496 Y62.3661
 X30.9763 Y62.8126
 X30.9160 Y63.2699
 X30.8688 Y63.7329
 X30.8351 Y64.1974
 X30.8153 Y64.6588
 X30.8096 Y65.1124
 X30.8183 Y65.5535
 X30.8443 Y66.0114
 X30.8865 Y66.4807
 X30.9443 Y66.9567
 X31.0167 Y67.4347
 X31.1029 Y67.9100
 X31.2024 Y68.3782
 X31.3139 Y68.8346
 X31.4371 Y69.2743
 X31.5807 Y69.7256
 X31.7436 Y70.1835
 X31.9239 Y70.6438
 X32.1194 Y71.1015
 X32.3281 Y71.5528
 X32.5481 Y71.9928
 X32.7772 Y72.4172
 X33.0136 Y72.8214
 X33.2732 Y73.2310
 X33.5539 Y73.6414
 X33.8522 Y74.0489
 X34.1653 Y74.4497
 X34.4899 Y74.8400
 X34.8228 Y75.2160
 X35.1610 Y75.5739
 X35.5011 Y75.9097
 X35.8650 Y76.2433
 X36.2503 Y76.5719
 X36.6526 Y76.8924
 X37.0681 Y77.2019
 X37.4924 Y77.4976
 X37.9213 Y77.7765
 X38.3507 Y78.0360
 X38.7767 Y78.2729
 X39.2254 Y78.5000
 X39.6940 Y78.7158
 X40.1778 Y78.9189
 X40.6715 Y79.1072
 X41.1706 Y79.2793
 X41.6699 Y79.4332
 X42.1647 Y79.5672
 X42.6501 Y79.6799
 X43.1556 Y79.7764
 X43.6778 Y79.8561
 X44.2117 Y79.9186
 X44.7518 Y79.9638
 X45.2931 Y79.9910
 X45.8299 Y80.0000
 X46.3572 Y79.9906
 X46.8697 Y79.9624
 X47.3976 Y79.9128
 X47.9382 Y79.8414
 X48.4861 Y79.7494
 X49.0357 Y79.6381
 X49.5819 Y79.5087
 X50.1192 Y79.3628
 X50.6422 Y79.2011
 X51.1457 Y79.0254
 X51.6583 Y78.8238
 X52.1781 Y78.5968
 X52.6997 Y78.3474
 X53.2183 Y78.0782
 X53.7290 Y77.7922
 X54.2267 Y77.4921
 X54.7063 Y77.1806
 X55.1628 Y76.8604
 X55.6214 Y76.5122
 X56.0806 Y76.1369
 X56.5360 Y75.7387
 X56.9836 Y75.3219
 X57.4189 Y74.8906
 X57.8375 Y74.4490
 X58.2354 Y74.0012
 X58.6081 Y73.5517
 X58.9754 Y73.0739
 X59.3365 Y72.5689
 X59.6882 Y72.0422
 X60.0272 Y71.4992
 X60.3504 Y70.9454
 X60.6544 Y70.3861
 X60.9365 Y69.8268
 X61.1932 Y69.2728
 X61.4374 Y68.6935
 X61.6686 Y68.0889
 X61.8849 Y67.4654
 X62.0844 Y66.8293
 X62.2656 Y66.1869
 X62.4264 Y65.5446
 X62.5651 Y64.9083
 X62.6801 Y64.2846
 X62.7756 Y63.6397
 X62.8517 Y62.9736
 X62.9085 Y62.2932
 X62.9457 Y61.6050
 X62.9632 Y60.9158
 X62.9607 Y60.2325
 X62.9381 Y59.5617
 X62.8950 Y58.9100
 X62.8269 Y58.2432
 X62.7346 Y57.5610
 X62.6196 Y56.8700
 X62.4829 Y56.1771
 X62.3265 Y55.4890
 X62.1517 Y54.8124
 X61.9599 Y54.1540
 X61.7528 Y53.5206
 X61.5179 Y52.8793
 X61.2550 Y52.2296
 X60.9669 Y51.5778
 X60.6572 Y50.9300
 X60.3290 Y50.2928
 X59.9854 Y49.6722
 X59.6297 Y49.0744
 X59.2653 Y48.5058
 X58.8710 Y47.9382
 X58.4471 Y47.3701
 X57.9981 Y46.8071
 X57.5286 Y46.2543
 X57.0435 Y45.7171
 X56.5475 Y45.2008
 X56.0453 Y44.7106
 X55.5417 Y44.2517
 X55.1467 Y43.8750
 X54.7536 Y43.4731
 X54.3663 Y43.0503
 X53.9881 Y42.6111
 X53.6228 Y42.1596
 X53.2742 Y41.7003
 X52.9457 Y41.2374
 X52.6411 Y40.7751
 X52.3621 Y40.3160
 X52.0908 Y39.8339
 X51.8297 Y39.3338
 X51.5814 Y38.8207
 X51.3479 Y38.2999
 X51.1319 Y37.7760
 X50.9356 Y37.2544
 X50.7615 Y36.7400
 X50.6104 Y36.2357
 X50.4721 Y35.7119
 X50.3476 Y35.1742
 X50.2381 Y34.6278
 X50.1444 Y34.0781
 X50.0676 Y33.5304
 X50.0089 Y32.9901
 X49.9692 Y32.4626
 X49.9486 Y31.9514
 X49.9444 Y31.4254
 X49.9567 Y30.8901
 X49.9847 Y30.3508
 X50.0285 Y29.8128
 X50.0878 Y29.2811
 X50.1622 Y28.7613
 X50.2514 Y28.2586
 X50.3543 Y27.7765
 X50.4760 Y27.2854
 X50.6151 Y26.7901
 X50.7700 Y26.2954
 X50.9392 Y25.8061
 X51.1213 Y25.3272
 X51.3146 Y24.8633
 X51.5179 Y24.4193
 X51.7282 Y23.9988
 X51.9583 Y23.5749
 X52.2058 Y23.1518
 X52.4679 Y22.7335
 X52.7421 Y22.3242
 X53.0257 Y21.9279
 X53.3164 Y21.5486
 X53.6113 Y21.1903
 X53.9076 Y20.8571
 X54.2229 Y20.5261
 X54.5540 Y20.2004
 X54.8974 Y19.8831
 X55.2497 Y19.5772
 X55.6078 Y19.2860
 X55.9681 Y19.0124
 X56.3274 Y18.7597
 X56.6815 Y18.5306
 X57.0529 Y18.3087
 X57.4378 Y18.0963
 X57.8321 Y17.8949
 X58.2319 Y17.7067
 X58.6336 Y17.5338
 X59.0331 Y17.3778
 X59.4265 Y17.2410
 X59.8090 Y17.1250
 X60.2058 Y17.0203
 X60.6128 Y16.9278
 X61.0258 Y16.8483
 X61.4410 Y16.7826
 X61.8544 Y16.7314
 X62.2618 Y16.6956
 X62.6593 Y16.6758
 X63.0404 Y16.6722
 X63.4321 Y16.6832
 X63.8301 Y16.7081
 X64.2308 Y16.7465
 X64.6301 Y16.7983
 X65.0242 Y16.8632
 X65.4090 Y16.9404
 X65.7807 Y17.0300
 X66.1332 Y17.1301
 X66.4919 Y17.2462
 X66.8532 Y17.3772
 X67.2136 Y17.5215
 X67.5696 Y17.6778
 X67.9175 Y17.8446
 X68.2540 Y18.0206
 X68.5754 Y18.2043
 X68.8760 Y18.3921
 X69.1782 Y18.5964
 X69.4793 Y18.8150
 X69.7764 Y19.0456
 X70.0664 Y19.2860
 X70.3465 Y19.5340
 X70.6139 Y19.7874
 X70.8657 Y20.0438
 X71.0967 Y20.2976
 X71.3256 Y20.5672
 X71.5499 Y20.8496
 X71.7675 Y21.1421
 X71.9764 Y21.4417
 X72.1744 Y21.7456
 X72.3593 Y22.0508
 X72.5290 Y22.3549
 X72.6799 Y22.6501
 X72.8249 Y22.9593
 X72.9626 Y23.2790
 X73.0919 Y23.6061
 X73.2115 Y23.9375
 X73.3201 Y24.2696
 X73.4164 Y24.5993
 X73.4992 Y24.9233
 X73.6238 Y25.5557
 X73.7124 Y26.2193
 X73.7611 Y26.8874
 X73.7665 Y27.5336
 X73.7292 Y28.1431
 X73.6508 Y28.7707
 X73.5344 Y29.3917
 X73.3835 Y29.9808
 X73.2992 Y30.2504
 X73.2032 Y30.5240
 X73.0967 Y30.7989
 X72.9808 Y31.0724
 X72.8567 Y31.3417
 X72.7254 Y31.6042
 X72.5882 Y31.8569
 X72.4461 Y32.0975
 X72.3049 Y32.3178
 X72.1522 Y32.5383
 X71.9899 Y32.7574
 X71.8192 Y32.9725
 X71.6421 Y33.1817
 X71.4603 Y33.3826
 X71.2753 Y33.5733
 X71.0890 Y33.7513
 X70.7174 Y34.0672
 X70.3125 Y34.3660
 X69.8903 Y34.6357
 X69.4669 Y34.8647
 X69.0582 Y35.0449
 X68.6232 Y35.2003
 X68.1793 Y35.3249
 X67.7443 Y35.4118
 X67.3362 Y35.4583
 X66.9114 Y35.4757
 X66.4864 Y35.4626
 X66.0785 Y35.4185
 X65.7064 Y35.3458
 X65.3261 Y35.2421
 X64.9535 Y35.1111
 X64.6039 Y34.9571
 X64.2954 Y34.7883
 X63.9882 Y34.5894
 X63.6950 Y34.3683
 X63.4283 Y34.1331
 X63.2024 Y33.8983
 X62.9850 Y33.6375
 X62.7857 Y33.3608
 X62.6139 Y33.0789
 X62.4799 Y32.8114
 X62.3607 Y32.5233
 X62.2617 Y32.2267
 X62.1881 Y31.9335
 X62.1436 Y31.6658
 X62.1183 Y31.3850
 X62.1135 Y31.1029
 X62.1301 Y30.8310
 X62.1657 Y30.5931
 X62.2215 Y30.3496
 X62.2954 Y30.1117
 X62.3851 Y29.8901
 X62.4822 Y29.7044
 X62.5986 Y29.5214
 X62.7292 Y29.3497
 X62.8689 Y29.1983
 X63.0042 Y29.0796
 X63.1551 Y28.9711
 X63.3150 Y28.8782
 X63.4767 Y28.8068
 X63.6256 Y28.7614
 X63.7838 Y28.7317
 X63.9438 Y28.7197
 X64.0979 Y28.7271
 X64.2347 Y28.7525
 X64.3732 Y28.7964
 X64.5060 Y28.8567
 X64.6257 Y28.9310
 X64.7283 Y29.0171
 X64.8236 Y29.1204
 X64.9065 Y29.2351
 X64.9718 Y29.3554
G0 Z10.0000
M5 (stop spindle)
G04 P3 (wait for 3 seconds)
G0 Z10.0000
M2 (end program)
