;PYCAM-META-DATA: Filename: test_pcb_3_alim_7805_cnc.svg
;PYCAM-META-DATA: Timestamp: 2015-06-27 09:28:08.288262
;PYCAM-META-DATA: Version: 0.5.1
;Estimated machine time: 96 minutes
G40 (disable tool radius compensation)
G49 (disable tool length compensation)
G80 (cancel modal motion)
G54 (select coordinate system 1)
G90 (disable incremental moves)
G21 (metric)
G61 (exact path mode)
F4.00000
S1000.00000
;PYCAM_TOOLPATH_SETTINGS: START
;[Bounds]
;maxz = 1.0
;maxx = 45.20811
;maxy = 15.37682
;minx = -0.91121
;miny = 1.80138
;minz = 0.0
;
;[Tool]
;torus_radius = 0.25
;speed = 1000.0
;shape = CylindricalCutter
;tool_radius = 0.25
;feedrate = 4.0
;
;[Process]
;engrave_offset = 0.0
;step_down = 1.0
;generator = EngraveCutter
;postprocessor = SimpleCutter
;milling_style = conventional
;material_allowance = 0.0
;pocketing_type = none
;path_direction = x
;
;PYCAM_TOOLPATH_SETTINGS: END
T3 M6
G0 Z10.0000
M3 (start spindle)
G04 P3 (wait for 3 seconds)
 X3.4851 Y12.6329
G1 Z0.0000 F2
 X5.3894
G0 Z10.0000
 X23.4157 Y6.3464
G1 Z0.0000
 X22.7926 Y6.3449
 X22.7789 Y4.4460
 X20.1842 Y3.1410
 X8.1869 Y3.1562
 X6.9578 Y4.4103
 X5.6307 Y4.4142
 X5.6236 Y3.7460
 X3.1432 Y3.7859
 Y6.3256
 X5.6582 Y6.3132
 X5.6692 Y5.7209
 X6.9053 Y5.7110
 X8.3785 Y4.3758
 X19.7901 Y4.3316
 X21.5124 Y5.2838
 X21.5181 Y6.3534
 X20.8718 Y6.3449
 X20.8661 Y6.9320
 X18.3706 Y6.9281
 X18.3610 Y6.3079
 X15.8267 Y6.2980
 X15.8324 Y8.8656
 X18.3554 Y8.8352
 X18.3653 Y8.2065
 X20.8537 Y8.1804
 X20.8622 Y8.8405
 X23.4033
 X23.4114 Y7.5592
 X23.4157 Y6.3464
G0 Z10.0000
 X25.9956 Y6.9870
G1 Z0.0000
 X24.8144 Y9.4427
 X23.3507 Y9.4483
 X23.3440 Y8.7812
 X20.9172 Y8.8200
 X20.8964 Y9.5048
 X18.6517 Y9.5256
 X12.6711 Y9.5461
 X12.6697 Y8.8324
 X13.3367 Y8.8254
 X13.2980 Y6.3449
 X10.7583
 X10.7693 Y8.8613
 X11.3619 Y8.8722
 X11.3676 Y9.4815
 X8.8413 Y9.4730
 X5.6279 Y9.4787
 X5.6212 Y8.8102
 X3.1404 Y8.8490
 Y11.3886
 X5.6568 Y11.3777
 X5.6677 Y10.7850
 X8.8265 Y10.7504
 X11.3372 Y10.7452
 X11.3387 Y11.4450
 X10.6716 Y11.4522
 X10.7100 Y13.9325
 X13.2500
 X13.2373 Y11.4161
 X12.6464 Y11.4066
 X12.6407 Y10.7452
 X18.1529
 X20.8636 Y10.7533
 Y11.3597
 X23.3797 Y11.3473
 X23.3896 Y10.7561
 X25.3464 Y10.7328
 X26.6746 Y8.2634
 X36.0496 Y8.2398
 X38.6690 Y8.2535
 X38.6761 Y8.9220
 X41.1565 Y8.8822
 Y6.3421
 X38.6401 Y6.3545
 X38.6306 Y6.9471
 X36.1128 Y6.9404
 X25.9956 Y6.9870
G0 Z10.0000
 X23.3882 Y11.9989
G1 Z0.0000
 X23.3811 Y11.3308
 X20.8400 Y11.3706
 X20.8443 Y12.0017
 X18.3487 Y11.9979
 X18.3388 Y11.3777
 X15.8063 Y11.3678
 X15.8101 Y13.9353
 X18.3335 Y13.9050
 X18.3431 Y13.2767
 X20.8318 Y13.2502
 X20.8400 Y13.9103
 X23.3811
 X23.4336 Y13.1952
 X38.6581 Y13.2629
 X38.6651 Y14.0372
 X41.1456 Y13.9985
 Y11.4588
 X38.6292 Y11.4698
 X38.6182 Y12.0624
 X23.3882 Y11.9989
G0 Z10.0000
 X38.9600 Y4.9751
G1 Z0.0000
 X40.8643
G0 Z10.0000
M5 (stop spindle)
G04 P3 (wait for 3 seconds)
G0 Z10.0000
M2 (end program)
